X: 1
T: Glamorganshire, The
M: 4/4
L: 1/8
R: hornpipe
K: Dmaj
|:A>G|F>DF>A  d2A>G|F>DF>A B2A>G|F>DF>A  d>ef>g|a2a>f e>cA>G|
(3FED F>A d2c>d|B>GE>D C>DE>F|A>dc>d B>GE>C|1D2F>E D2:|2D2F>E D2e>d||
|:c>de>f g2 f>e|d>ef>g a2 f>a|a>ge>g g>fd>f|(3efe (3dcB (3ABA (3GFE|
F>DF>A d2 c>d|B>GE>D C>DE>F|A>dc>d B>GE>C|1D2F>E D2e>d:|2D2 F>E D2A>G|
